flaticon/gastronomy/ham.svg

<svg xmlns="http://www.w3.org/2000/svg" width="32" height="32" viewBox="0 0 24 24">
    <path d="M 22.613281 19.222656 L 21.886719 18.890625 C 22.039062 18.679688 22.132812 18.542969 22.140625 18.535156 L 22.167969 18.488281 C 23.207031 16.472656 22.925781 14.4375 21.394531 12.910156 L 21.109375 12.625 L 18.175781 9.6875 L 11.933594 3.449219 C 10.097656 1.609375 7.3125 1.277344 5.128906 2.449219 L 4.882812 0.710938 C 4.832031 0.355469 4.566406 0.0820312 4.210938 0.015625 C 3.855469 -0.0546875 3.515625 0.109375 3.339844 0.425781 L 2.324219 2.253906 L 1.421875 2.554688 C 1.097656 2.664062 0.875 2.953125 0.859375 3.296875 C 0.839844 3.636719 1.03125 3.953125 1.339844 4.09375 L 2.804688 4.757812 C 1.609375 6.945312 1.929688 9.753906 3.78125 11.605469 L 12.941406 20.761719 L 13.242188 21.0625 C 14.164062 21.984375 15.265625 22.453125 16.4375 22.453125 C 17.042969 22.453125 17.664062 22.328125 18.289062 22.074219 L 18.453125 23.222656 C 18.507812 23.613281 18.796875 23.910156 19.183594 23.984375 C 19.242188 23.992188 19.300781 24 19.355469 24 C 19.679688 24 19.980469 23.828125 20.140625 23.53125 L 21.386719 21.28125 L 22.523438 20.90625 C 22.878906 20.785156 23.121094 20.46875 23.140625 20.09375 C 23.164062 19.71875 22.953125 19.375 22.613281 19.222656 Z M 11.785156 4.605469 L 13.859375 6.679688 C 11.265625 7.007812 7.636719 8.722656 7.027344 13.546875 L 4.945312 11.464844 C 5.277344 5.167969 10.695312 4.644531 11.785156 4.605469 Z M 14.722656 7.542969 L 16.796875 9.617188 C 14.210938 9.949219 10.574219 11.660156 9.964844 16.484375 L 7.878906 14.398438 C 8.210938 8.09375 13.640625 7.582031 14.722656 7.542969 Z M 17.65625 10.476562 L 19.730469 12.546875 C 17.136719 12.878906 13.507812 14.59375 12.898438 19.417969 L 10.816406 17.335938 C 11.148438 11.03125 16.570312 10.515625 17.65625 10.476562 Z M 3.316406 3.976562 L 1.941406 3.351562 L 2.648438 3.117188 C 2.847656 3.050781 3.011719 2.917969 3.113281 2.734375 L 4.007812 1.121094 L 4.277344 3.011719 C 4.222656 3.054688 4.167969 3.105469 4.113281 3.152344 C 3.996094 3.25 3.882812 3.347656 3.78125 3.449219 C 3.78125 3.453125 3.78125 3.453125 3.777344 3.453125 C 3.617188 3.613281 3.46875 3.785156 3.332031 3.960938 C 3.328125 3.96875 3.320312 3.972656 3.316406 3.976562 Z M 3.785156 4.910156 L 3.851562 4.8125 C 3.941406 4.683594 4.03125 4.558594 4.128906 4.4375 C 4.148438 4.414062 4.171875 4.394531 4.191406 4.371094 C 4.269531 4.277344 4.351562 4.1875 4.433594 4.101562 C 4.449219 4.085938 4.472656 4.070312 4.488281 4.054688 C 4.566406 3.976562 4.644531 3.90625 4.726562 3.839844 C 4.824219 3.757812 4.925781 3.675781 5.042969 3.59375 L 5.230469 3.460938 C 6.027344 2.945312 6.941406 2.6875 7.859375 2.6875 C 8.933594 2.6875 10.003906 3.042969 10.886719 3.75 C 8.308594 4.09375 4.714844 5.804688 4.097656 10.578125 C 2.773438 8.945312 2.667969 6.644531 3.785156 4.910156 Z M 13.894531 20.410156 L 13.75 20.269531 C 14.082031 13.976562 19.5 13.453125 20.59375 13.410156 L 20.742188 13.5625 C 21.980469 14.800781 22.199219 16.390625 21.359375 18.039062 C 21.320312 18.097656 21.199219 18.269531 21.027344 18.5 L 19.90625 17.992188 L 19.6875 18.3125 C 19.46875 18.636719 19.230469 18.929688 18.96875 19.1875 C 18.757812 19.402344 18.511719 19.605469 18.21875 19.816406 L 17.988281 19.980469 L 18.15625 21.132812 C 17.128906 21.59375 15.433594 21.953125 13.894531 20.410156 Z M 21.09375 20.410156 C 20.878906 20.480469 20.699219 20.628906 20.589844 20.828125 L 19.367188 23.089844 L 18.980469 20.398438 C 19.222656 20.214844 19.429688 20.03125 19.621094 19.839844 C 19.726562 19.734375 19.832031 19.621094 19.933594 19.507812 C 20.03125 19.390625 20.128906 19.273438 20.222656 19.148438 L 21.3125 19.644531 L 21.324219 19.628906 L 22.234375 20.03125 Z M 21.09375 20.410156"/>
    <path d="M4.097656 7.371094C4.191406 7.476562 4.316406 7.53125 4.445312 7.53125 4.554688 7.53125 4.664062 7.492188 4.75 7.414062 4.941406 7.246094 4.960938 6.957031 4.792969 6.765625 4.71875 6.679688 4.65625 6.609375 4.597656 6.550781 4.394531 6.328125 4.339844 6.269531 4.226562 5.949219 4.140625 5.707031 3.878906 5.582031 3.640625 5.667969 3.398438 5.75 3.273438 6.015625 3.355469 6.253906 3.523438 6.730469 3.664062 6.898438 3.921875 7.175781 3.972656 7.230469 4.03125 7.296875 4.097656 7.371094zM5.878906 8.480469C5.699219 8.664062 5.699219 8.953125 5.878906 9.132812L7.023438 10.277344C7.113281 10.367188 7.230469 10.414062 7.347656 10.414062 7.464844 10.414062 7.585938 10.367188 7.675781 10.277344 7.855469 10.097656 7.855469 9.808594 7.675781 9.625L6.53125 8.480469C6.351562 8.300781 6.058594 8.300781 5.878906 8.480469zM9.980469 13.238281C10.070312 13.328125 10.1875 13.371094 10.304688 13.371094 10.425781 13.371094 10.542969 13.328125 10.632812 13.238281 10.8125 13.054688 10.8125 12.765625 10.632812 12.585938L9.441406 11.390625C9.261719 11.210938 8.96875 11.210938 8.789062 11.390625 8.609375 11.574219 8.609375 11.863281 8.789062 12.042969zM12.996094 16.253906C13.085938 16.34375 13.203125 16.386719 13.320312 16.386719 13.441406 16.386719 13.558594 16.34375 13.648438 16.253906 13.828125 16.070312 13.828125 15.78125 13.648438 15.601562L12.515625 14.46875C12.335938 14.289062 12.046875 14.289062 11.867188 14.46875 11.683594 14.648438 11.683594 14.941406 11.867188 15.121094zM15.449219 17.464844C15.265625 17.289062 14.976562 17.292969 14.796875 17.472656 14.617188 17.65625 14.621094 17.949219 14.804688 18.125 15.574219 18.878906 16.292969 19.480469 17 19.960938 17.078125 20.015625 17.167969 20.039062 17.257812 20.039062 17.40625 20.039062 17.550781 19.96875 17.640625 19.839844 17.785156 19.628906 17.730469 19.339844 17.519531 19.199219 16.859375 18.75 16.179688 18.183594 15.449219 17.464844zM6.027344 4.230469C6.34375 4.363281 6.433594 4.453125 6.699219 4.726562L6.78125 4.808594C6.871094 4.898438 6.988281 4.945312 7.109375 4.945312 7.226562 4.945312 7.34375 4.902344 7.433594 4.8125 7.613281 4.632812 7.613281 4.339844 7.4375 4.160156L7.355469 4.078125C7.066406 3.78125 6.871094 3.585938 6.382812 3.378906 6.148438 3.28125 5.878906 3.390625 5.777344 3.625 5.679688 3.859375 5.789062 4.132812 6.027344 4.230469zM9.644531 7.691406C9.734375 7.78125 9.851562 7.828125 9.96875 7.828125 10.089844 7.828125 10.207031 7.78125 10.296875 7.691406 10.476562 7.511719 10.476562 7.21875 10.296875 7.039062L9.03125 5.777344C8.851562 5.59375 8.5625 5.59375 8.378906 5.777344 8.199219 5.957031 8.199219 6.246094 8.378906 6.429688zM12.519531 10.566406C12.609375 10.65625 12.726562 10.703125 12.847656 10.703125 12.964844 10.703125 13.082031 10.65625 13.171875 10.566406 13.351562 10.386719 13.351562 10.097656 13.171875 9.914062L12.03125 8.777344C11.851562 8.597656 11.5625 8.597656 11.378906 8.777344 11.199219 8.957031 11.199219 9.25 11.378906 9.429688zM15.453125 13.5C15.542969 13.589844 15.660156 13.636719 15.777344 13.636719 15.898438 13.636719 16.015625 13.589844 16.105469 13.5 16.285156 13.320312 16.285156 13.03125 16.105469 12.847656L14.964844 11.710938C14.785156 11.53125 14.492188 11.53125 14.3125 11.710938 14.132812 11.890625 14.132812 12.183594 14.3125 12.363281zM19.132812 17.523438C19.21875 17.664062 19.371094 17.742188 19.527344 17.742188 19.609375 17.742188 19.691406 17.71875 19.769531 17.671875 19.984375 17.539062 20.050781 17.253906 19.917969 17.039062 19.371094 16.152344 18.664062 15.394531 17.984375 14.703125 17.804688 14.519531 17.511719 14.519531 17.332031 14.699219 17.148438 14.878906 17.148438 15.167969 17.328125 15.351562 17.96875 16.003906 18.632812 16.714844 19.132812 17.523438zM19.132812 17.523438"/>
</svg>

<svg xmlns="http://www.w3.org/2000/svg" width="32" height="32" viewBox="0 0 24 24">
    <path d="M22.613 19.223l-.726-.332c.152-.211.246-.348.254-.356l.027-.047c1.039-2.015.758-4.05-.773-5.578l-.286-.285-2.933-2.938-6.242-6.238c-1.836-1.84-4.621-2.172-6.805-1L4.883.711A.82.82 0 0 0 4.21.016a.805.805 0 0 0-.871.41L2.324 2.254l-.902.3a.819.819 0 0 0-.563.743c-.02.34.172.656.48.797l1.466.664c-1.196 2.187-.875 4.996.976 6.847l9.16 9.157.301.3c.922.922 2.024 1.391 3.195 1.391.606 0 1.227-.125 1.852-.379l.164 1.149a.895.895 0 0 0 .902.777.886.886 0 0 0 .786-.469l1.246-2.25 1.136-.375a.903.903 0 0 0 .618-.812.891.891 0 0 0-.528-.871zM11.785 4.605L13.86 6.68c-2.593.328-6.222 2.043-6.832 6.867l-2.082-2.082c.332-6.297 5.75-6.82 6.84-6.86zm2.938 2.938l2.074 2.074c-2.586.332-6.223 2.043-6.832 6.867l-2.086-2.086c.332-6.304 5.762-6.816 6.844-6.855zm2.933 2.934l2.074 2.07c-2.593.332-6.222 2.047-6.832 6.871l-2.082-2.082c.332-6.305 5.754-6.82 6.84-6.86zm-14.34-6.5l-1.375-.625.707-.235c.2-.066.364-.199.465-.383l.895-1.613.27 1.89c-.055.044-.11.094-.165.141-.117.098-.23.196-.332.297 0 .004 0 .004-.004.004a5.45 5.45 0 0 0-.445.508c-.004.008-.012.012-.016.016zm.47.933l.066-.098c.09-.128.18-.253.277-.375.02-.023.043-.042.062-.066.079-.094.16-.184.243-.27.015-.015.039-.03.054-.046.078-.078.157-.149.239-.215.097-.082.199-.164.316-.246l.187-.133a4.832 4.832 0 0 1 2.63-.773c1.074 0 2.144.355 3.027 1.062-2.578.344-6.172 2.055-6.79 6.828a4.854 4.854 0 0 1-.312-5.668zm10.109 15.5l-.145-.14c.332-6.293 5.75-6.817 6.844-6.86l.148.152c1.238 1.239 1.457 2.829.617 4.477-.039.059-.16.23-.332.461l-1.12-.508-.22.32a5.685 5.685 0 0 1-1.468 1.504l-.23.164.167 1.153c-1.027.46-2.722.82-4.261-.723zm7.199 0a.89.89 0 0 0-.504.418l-1.223 2.262-.387-2.692c.243-.183.45-.367.641-.558.106-.106.211-.219.313-.332a8.93 8.93 0 0 0 .289-.36l1.09.497.011-.016.91.402zm0 0"/>
    <path d="M4.098 7.371c.093.106.218.16.347.16.11 0 .22-.039.305-.117a.458.458 0 0 0 .043-.648 4.089 4.089 0 0 0-.195-.215c-.203-.223-.258-.281-.371-.602a.457.457 0 0 0-.586-.281.46.46 0 0 0-.286.586c.168.476.31.644.567.922.05.054.11.12.176.195zm0 0M5.879 8.48a.462.462 0 0 0 0 .653l1.144 1.144a.46.46 0 0 0 .653 0 .462.462 0 0 0 0-.652L6.53 8.48a.462.462 0 0 0-.652 0zm0 0M9.98 13.238c.09.09.207.133.325.133a.457.457 0 0 0 .328-.133.462.462 0 0 0 0-.652L9.44 11.39a.462.462 0 0 0-.652.652zm0 0M12.996 16.254c.09.09.207.133.324.133a.457.457 0 0 0 .328-.785l-1.132-1.133a.457.457 0 0 0-.649 0 .455.455 0 0 0 0 .652zm0 0M15.45 17.465a.466.466 0 0 0-.653.008.459.459 0 0 0 .008.652c.77.754 1.488 1.355 2.195 1.836a.465.465 0 0 0 .64-.121c.145-.211.09-.5-.12-.64-.66-.45-1.34-1.016-2.07-1.735zm0 0M6.027 4.23c.317.133.407.223.672.497l.082.082a.461.461 0 0 0 .657-.649l-.083-.082c-.289-.297-.484-.492-.972-.7a.465.465 0 0 0-.606.247.462.462 0 0 0 .25.605zm0 0M9.645 7.691a.46.46 0 0 0 .652 0 .462.462 0 0 0 0-.652L9.03 5.777a.462.462 0 0 0-.652.652zm0 0M12.52 10.566a.46.46 0 0 0 .652 0 .462.462 0 0 0 0-.652l-1.14-1.137a.462.462 0 0 0-.653.653zm0 0M15.453 13.5a.46.46 0 0 0 .652 0 .462.462 0 0 0 0-.652l-1.14-1.137a.462.462 0 0 0-.652.652zm0 0M19.133 17.523a.461.461 0 0 0 .785-.484c-.547-.887-1.254-1.644-1.934-2.336a.459.459 0 0 0-.652-.004.459.459 0 0 0-.004.653c.64.652 1.305 1.363 1.805 2.171zm0 0"/>
</svg>
